X: 2140
Q: "Reel."
M: C
L: 1/8
K: D
d2(fd) AFDF | d2(fd) (e/f/g) (fe) |\
d2(fd) AFDF | GEFD CEE :|\
uA |\
(F/E/D) (AD) BDAD | (G/F/E) (F/E/D) CEEG |
(F/E/D) (AD) BDAD | (G/F/E) (F/E/D) A,DDA |\
(F/E/D) (dD) cDBD | (AD) (F/E/D) CEEG |\


